packages/foundations/assets/icons/functional/images/human/wc_sign_24.svg

<svg width="24" height="24" viewBox="0 0 24 24" fill="none" xmlns="http://www.w3.org/2000/svg">
<g clip-path="url(#clip0_185_1296)">
<path fill-rule="evenodd" clip-rule="evenodd" d="M2 7.21732C2 6.65842 2.528 6.28574 3.0559 6.28574C3.45958 6.28574 3.83225 6.50309 3.95647 7.03109L5.47826 13.5838L7.18629 6.99998C7.31051 6.53419 7.71429 6.31675 8.11806 6.31675C8.55275 6.31675 8.95652 6.53419 9.08075 7.03109L10.7268 13.5527L12.2795 7.03109C12.4037 6.50309 12.7763 6.28574 13.1801 6.28574C13.677 6.28574 14.205 6.68942 14.205 7.27953C14.205 7.34155 14.205 7.43476 14.1739 7.52798L11.7205 16.969C11.5963 17.4659 11.1614 17.7143 10.7578 17.7143C10.3541 17.7143 9.95031 17.4659 9.82609 17L8.11806 10.2919L6.37893 17C6.2236 17.4659 5.81983 17.7143 5.41615 17.7143C5.01247 17.7143 4.6087 17.4659 4.48447 16.969L2.06211 7.52798C2.03111 7.43476 2 7.31054 2 7.21732ZM14.267 12.062C14.267 6.81364 17.528 6.25464 18.9255 6.25464C19.7329 6.25464 20.5714 6.44097 21.3168 6.78264C21.7516 6.93787 21.9379 7.27953 21.9379 7.6522C21.9379 8.1491 21.5342 8.677 20.9751 8.677C20.8509 8.677 20.7267 8.64599 20.5714 8.58378C20.0124 8.33533 19.4844 8.21111 18.8013 8.21111C18.0248 8.21111 16.2546 8.39755 16.2546 12.062C16.2546 15.3541 17.6833 15.7888 18.9565 15.7888C19.5155 15.7888 20.0745 15.6645 20.6024 15.4783C20.7578 15.4161 20.882 15.3851 21.0373 15.3851C21.5962 15.3851 22 15.913 22 16.4099C22 16.7515 21.8137 17.0932 21.41 17.2794C20.6335 17.5901 19.7951 17.7453 18.9565 17.7453C17.2174 17.7453 14.267 17.031 14.267 12.062Z" fill="#1A1C1F"/>
</g>
<defs>
<clipPath id="clip0_185_1296">
<rect width="24" height="24" fill="white"/>
</clipPath>
</defs>
</svg>

<svg xmlns="http://www.w3.org/2000/svg" width="24" height="24" fill="none"><g clip-path="url(#a)"><path fill="#1A1C1F" fill-rule="evenodd" d="M2 7.217c0-.559.528-.931 1.056-.931.404 0 .776.217.9.745l1.522 6.553L7.186 7c.125-.466.528-.683.932-.683.435 0 .839.217.963.714l1.646 6.522L12.28 7.03c.124-.528.496-.745.9-.745.497 0 1.025.403 1.025.994 0 .062 0 .155-.031.248l-2.453 9.441a.98.98 0 0 1-.963.745.95.95 0 0 1-.932-.714l-1.708-6.708L6.378 17c-.154.466-.558.714-.962.714a.95.95 0 0 1-.932-.745L2.062 7.528A1.1 1.1 0 0 1 2 7.218m12.267 4.845c0-5.248 3.261-5.807 4.659-5.807.807 0 1.645.186 2.39.528.436.155.622.497.622.87 0 .496-.404 1.024-.963 1.024a1.1 1.1 0 0 1-.404-.093 4.1 4.1 0 0 0-1.77-.373c-.776 0-2.546.187-2.546 3.851 0 3.292 1.428 3.727 2.701 3.727.56 0 1.119-.124 1.646-.31.156-.063.28-.094.435-.094.56 0 .963.528.963 1.025 0 .341-.186.683-.59.87a6.6 6.6 0 0 1-2.454.465c-1.739 0-4.689-.714-4.689-5.683" clip-rule="evenodd"/></g><defs><clipPath id="a"><path fill="#fff" d="M0 0h24v24H0z"/></clipPath></defs></svg>
